X:1
T:Caprice No. 16
T:Caprice No. 16
T:Op. 20
T:Luigi Legnani (1790 - 1877)
C:Luigi Legnani
%%score ( 1 2 )
L:1/8
Q:1/4=80
M:4/4
K:Db
V:1 treble-8 nm="Classical Guitar" snm="Guit."
V:2 treble-8 
V:1
"^Andante sostenuto"!f!"^VI" [dfd']/ | [FAdfd']2 z2 z2!p! [=A=a]2 | %2
 [Bb]2 z2 z2 z3/2!f!"^VI" [dfb]/ | [FBdfb]2 z2 z2!p! [Ff]2 | [Gg]2 z2 z4 | %5
"^IV" [ce]2 z2 z [ce][ce][ce] | [df]2 z2 z [df][df][df] | [eg]2 z [eg] [df]2 z [df] | %8
 [ce]2 z3/2!f! [cea]/ [cea]2 [cea]2 | [EAcea]4 !fermata!z2!p!"^IX" g>g | %10
 [fa]3 [fa] [gb][bd'][ac'][gb] | !>![=e=g]>[fa] [fa]2 z/ d'/f'/e'/ d'/c'/b/a/ | %12
"^IV" [eg]3 [eg] [df]3 [df] | [ce]([ce]/[df]/) ([ce]/[df]/)([ce]/[df]/) [ce]2"^IX" f>g | %14
 [fa]3 [fa]"^VIII" !>![e=a]3 a |"^VI" [dfb]3/2{/c'}b/4=a/4 bc' d'2 z/ b/c'/d'/ | %16
"^VIII" z [fac'][fac'][fac'] [=e=gc']e'/d'/!<(!{/d'} c'/b/{/b}a/g/!<)! | %17
!f! f[Acf][Acf][Acf] [Acf]!>(!{/fgf=e}fgf!>)! | %18
!p!"^I" e2 z/ (!>!=d/e/)c/ z/ (!>!d/e/)c/ z/ a/c/e/ | d2 z2 z{/fgf=e} fgf | %20
 e2 z/ (!>!=d/e/)c/ z/ (!>!d/e/)c/ z/ a/c/e/ | dA F/A/B/c/ z [FAd][FAc]!>![FA_c] | %22
"^II" z"_cresc." [DGB][DGB] z"^III" z [=GB=e][GB=d]"^II"!>![GB_d] | %23
!f!"^IV" z [EAc][EAc] z"^V" z [=Acf][Ac=e]"^IV"!>![Ac_e] | %24
"^I" [FBd][FBd][FBd][FBd]!ff!"^II" [_F__Bd=g][FBdg][FBdg][FBdg] | %25
!p!"^IV" [dfa]d'/c'/ b/a/g/f/ [Ace]c'/b/ a/g/f/e/ |"^I" !>!d2 z d cage | !>!d2 z d cage | %28
 [FAd]2"^II" [GBd]2 [FAd]2 [GBd]2 | [FAd]2 [FAd]2 [FAd]2 [FAd]2 | [FAd]4 z4 |] %31
V:2
 z/ | D2 z2 z2 =A,2 | B,2 z2 z4 | B,2 z2 z2 F,2 | G,2 z2 z4 | z [A,A][A,A][A,A] [A,A]2 z2 | %6
 z [A,A][A,A][A,A] [A,A]2 z2 | z [A,A][A,A] z z [A,A][A,A] z | z2 z3/2 A/ E2 C2 | %9
 A,4 !fermata!z2 z2 | DdDd DdDd | DdDd D2 z2 | A,AA,A A,AA,A | A,AA,A A,2 z2 | DdDd CcC[ce] | %15
 B,2 z2 z2 B, z | C2 z2 C2 z2 | z FCA, F,2 z2 | z [GA][GA] z [GA]2 [GA]2 | %19
 z [FA][FA][FA] [FA]2 z2 | z [GA][GA] z [GA]2 [GA]2 | z FD z F,3 !>!F, | G,3 G, =G,3 !>!G, | %23
 A,3 A, =A,3 !>!A, | B,B,B,B, __B,B,B,B, | A,2 z2 A,2 z2 | !>![DFA][FA][FA][FA] [GA][GA][GA][GA] | %27
 !>![DFA][FA][FA][FA] [GA][GA][GA][GA] | D2 D2 D2 D2 | D2 A,2 F,2 A,2 | D4 z4 |] %31

